X:1
T:Ay triste que vengo
T:Ay triste que vengo
T:Cancionero de Palacio
T:Juan del Encina (1468-1529)
C:Juan del Encina (1468-1529)
%%score 1 2 3 4
L:1/8
M:3/2
K:C
V:1 treble+8 nm="Flûte à bec" snm="Fl. Bec"
V:2 treble nm="Soprano" snm="S."
V:3 treble nm="Alto" snm="A."
V:4 bass nm="Bass" snm="B."
V:1
 z4 | z12 | z12 | z12 | z12 | z12 | z12 || z8 A3 B | c4 cBcd BcBA | G4 GAFG E4 | %10
 AEFG A2 BA ^GA G2 | A4 A2 z2 A3 B | cd e4 dc Bdef | g4 gagf edec | agfe dcBA ^G4 | A4 A2 z2 A3 G | %16
 ABcd efga bgaf | gefe dcBA GAFG | AFGA Bcde f3 e | d6 cB AG A2 | cB A2 ^G2 E^F GA G2 | A12 |] %22
V:2
 A4 | c4 c4 B4 | G4 G4 E4 | A4 A4 F4 | D8 A4 | A4 ^G4 G4 | A12 || z8 A4 | c4 c4 B4 | G4 G4 E4 | %10
 A4 A4 ^G4 | A4 A2 z2 A4 | c4 c4 B4 | G4 G4 E4 | A4 A4 ^G4 | A4 A2 z2 A4 | c4 c4 B4 | G4 G4 E4 | %18
 A4 A4 F4 | D8 A4 | A4 ^G4 G4 | A12 |] %22
V:3
 A,4 | E4 C4 D4 | E4 B,4 C4 | C4 C4 D4 | B,8 C4 | A,4 B,4 B,4 | A,12 || z8 A,4 | E4 C4 D4 | %9
 E4 B,4 C4 | C4 A,4 B,4 | A,4 A,2 z2 A,4 | E4 C4 D4 | E4 B,4 C4 | C4 A,4 B,4 | A,4 A,2 z2 A,4 | %16
 E4 C4 D4 | E4 B,4 C4 | C4 C4 D4 | B,8 C4 | A,4 B,4 B,4 | A,12 |] %22
V:4
 A,4 | A,4 A,4 G,4 | E,4 E,4 C,4 | F,4 F,4 D,4 | G,8 F,4 | F,4 E,4 E,4 | A,,12 || z8 A,4 | %8
 A,4 A,4 G,4 | E,4 E,4 C,4 | F,4 F,4 E,4 | A,,4 A,,2 z2 A,4 | A,4 A,4 G,4 | E,4 E,4 C,4 | %14
 F,4 F,4 E,4 | A,,4 A,,2 z2 A,4 | A,4 A,4 G,4 | E,4 E,4 C,4 | F,4 F,4 D,4 | G,8 F,4 | F,4 E,4 E,4 | %21
 A,,12 |] %22

